app/dist/common/images/dr-horton.svg

<svg height="18" width="18" xmlns="http://www.w3.org/2000/svg"><path d="m0 0h18v18h-18z" fill="#29445a"/><path d="m5.845 5.364c.196.047.158.205.158.205v6.37c0 .696-1.003.68-1.003.68v-7.255zm-.701-.364h-2.288s-.196-.004-.196.19c0 .142.115.19.34.19v7.255s-.326 0-.382.158.126.205.266.205h3.256s1.86-.095 1.86-1.565v-4.995s-.147-1.39-1.453-1.438zm3.804 4.57c.276 0 .5-.253.5-.57 0-.318-.224-.572-.5-.572-.277 0-.5.254-.5.571 0 .318.223.571.5.571zm4.884-4.567c.376 0 1.11.698 1.168 1.254v1.142c0 1.206-1.023 1.492-1.023 1.492.497.182.929.514 1.027 1.063v2.743h.44s.102-.016.102.143c0 .158-.173.158-.173.158h-1.815c-.23 0-.558-.245-.558-.396v-3.109c0-.238-.265-.27-.265-.27h-.735v3.441h.25c.043 0 .24-.048.24.159 0 .206-.197.174-.197.174h-2.619c-.072 0-.13-.05-.13-.178 0-.127.13-.155.13-.155h.326v-7.328h-.268s-.13-.005-.13-.164c0-.169.13-.169.13-.169zm-1.832.333v3.46h.86s.142-.016.142-.317v-2.92s-.006-.223-.22-.223z" fill="#fff"/></svg>

<!-- by TradingView --><svg width="18" height="18" xmlns="http://www.w3.org/2000/svg"><path fill="#29445A" d="M0 0h18v18H0z"/><path d="M5.845 5.364c.196.047.158.205.158.205v6.37c0 .696-1.003.68-1.003.68V5.364h.845zM5.144 5H2.856s-.196-.004-.196.19c0 .142.115.19.34.19v7.255s-.326 0-.382.158c-.056.158.126.205.266.205H6.14S8 12.903 8 11.433V6.438S7.853 5.048 6.547 5H5.144zM8.948 9.57c.276 0 .5-.253.5-.57 0-.318-.224-.572-.5-.572-.277 0-.5.254-.5.571 0 .318.223.571.5.571zM13.832 5.003c.376 0 1.11.698 1.168 1.254v1.142c0 1.206-1.023 1.492-1.023 1.492.497.182.929.514 1.027 1.063v2.743h.44s.102-.016.102.143c0 .158-.173.158-.173.158h-1.815c-.23 0-.558-.245-.558-.396V9.493c0-.238-.265-.27-.265-.27H12v3.441h.25c.043 0 .24-.048.24.159 0 .206-.197.174-.197.174H9.674c-.072 0-.13-.05-.13-.178 0-.127.13-.155.13-.155H10V5.336h-.268s-.13-.005-.13-.164c0-.169.13-.169.13-.169h4.1zM12 5.336v3.46h.86s.142-.016.142-.317v-2.92s-.006-.223-.22-.223H12z" fill="#fff"/></svg>
